icon-themes/sifr_svg/cmd/sc_setobjecttoforeground.svg

<svg viewBox="0 0 16 16" xmlns="http://www.w3.org/2000/svg"><g fill="#555753"><path d="m1 3v2h4a5 5 0 0 1 4-2zm0 4v2h3.1054688a5 5 0 0 1 -.1054688-1 5 5 0 0 1 .1015625-1zm0 4v2h8a5 5 0 0 1 -4-2z"/><circle cx="9" cy="8" opacity=".35" r="5"/></g></svg>

<svg xmlns="http://www.w3.org/2000/svg" viewBox="0 0 16 16">
  <path
     style="fill:#555753"
     d="M 1 3 L 1 5 L 5 5 A 5 5 0 0 1 9 3 L 1 3 z M 1 7 L 1 9 L 4.1054688 9 A 5 5 0 0 1 4 8 A 5 5 0 0 1 4.1015625 7 L 1 7 z M 1 11 L 1 13 L 9 13 A 5 5 0 0 1 5 11 L 1 11 z "
     />
  <circle
     style="opacity:0.35;fill:#555753"
     cx="9"
     cy="8"
     r="5" />
</svg>
